!!!COM: Samuel Scheidt
!!!OPR: Tabulatura nova
!!!OTL: 14. Canon a 3 Voc. in 5 post Minimam
!!!ONB: Cantus firmus: "In te Domine speravi"
!!!YOR: S. Scheidt, Werke, edited by G. Harms and C. Mahrenholz
!!!YOR: Vol. VI/1, Hamburg (1923-1962).
**kern	**kern	**kern
*CF	*guida	*conseq
*k[]	*k[]	*k[]
*M4/2	*M4/2	*M4/2
=1	=1	=1
0r	4C	2r
.	4D	.
.	4E	4G
.	4F	4A
.	4G	4B
.	4A	4c
.	4G	4d
.	4C	4e
=2	=2	=2
1G	4r	4d
.	4E	4G
.	8D	4r
.	8C	.
.	8D	4B
.	8E	.
1A	2F	8A
.	.	8G
.	.	8A
.	.	8B
.	2E	2c
=3	=3	=3
1B	4r	2B
.	4G	.
.	2D	4r
.	.	4d
1c	4r	2A
.	8C	.
.	8D	.
.	4E	4r
.	4F	8G
.	.	8A
=4	=4	=4
1d	4D	4B
.	2G	4c
.	.	4A
.	4F	2d
1e	8E	.
.	8C	.
.	8E	4c
.	8F	.
.	4G	8B
.	.	8G
.	4G	8B
.	.	8c
=5	=5	=5
1d	2.r	4d
.	.	4d
.	.	2.r
.	4F	.
1G	8.E	.
.	16D	.
.	8.E	.
.	16F	4c
.	4G	8.B
.	.	16A
.	[4G	8.B
.	.	16c
=6	=6	=6
1r	4G]	4d
.	8F	2d
.	8F	.
.	4F	.
.	2E	8c
.	.	8c
1G	.	4c
.	8.E	2B
.	16F	.
.	4G	.
.	8D	8.B
.	8D	.
.	.	16c
=7	=7	=7
1F	8.D	4d
.	16C	.
.	8.D	8G
.	.	8G
.	16E	.
.	4F	8.A
.	.	16G
.	8C	8.A
.	8C	.
.	.	16B
1E	8.C	4c
.	16BB	.
.	8.C	8G
.	.	8G
.	16D	.
.	4E	8.G
.	.	16F
.	4BB	8.G
.	.	16A
=8	=8	=8
1D	4r	4B
.	8BB	4F
.	8C	.
.	4D	4r
.	4AA	8F
.	.	8G
1C	4r	4A
.	8AA	4E
.	8BB	.
.	4C	4r
.	8GG	8E
.	8GG	8F
=9	=9	=9
1BB	4GG	4G
.	4GG	8D
.	.	8D
.	2r	4D
.	.	4D
1C	4r	2r
.	8C	.
.	8D	.
.	4E	4r
.	4E	8G
.	.	8A
=10	=10	=10
0G	4r	4B
.	8D	[2.B
.	8D	.
.	2D	.
.	1D	1B]
==	==	==
*-	*-	*-
!!!CDT: 1587///-1654/3/30
!!!OCY: Deutschland
!!!ODT: 1624
!!!AFR: cantus firmus canon
!!!AST: polyphony
!!!AMT: simple duple
!!!AIN: vox
!!!YEP: David Huron and Denis Collins
!!!YEN: Canada
!!!EEV: 1.0
!!!RDT: 1995 April 29
!!!YED: 1995 August 31
